<?xml version="1.0" encoding="UTF-8"?>
<map version="1.10" tiledversion="1.12.2" orientation="orthogonal" renderorder="right-down" width="30" height="20" tilewidth="16" tileheight="16" infinite="0" nextlayerid="2" nextobjectid="1">
 <tileset firstgid="1" source="../java-rpg-tiles.tsx"/>
 <layer id="1" name="Rutlager 1" width="30" height="20">
  <data encoding="csv">
7,7,7,7,7,7,7,5,5,5,7,7,7,7,7,7,7,7,7,7,7,7,7,7,7,7,7,7,7,7,
7,7,7,7,7,5,5,4,4,4,7,7,7,7,7,7,7,7,7,7,7,7,7,7,7,7,7,7,7,7,
7,7,7,7,5,4,4,4,6,4,7,7,7,7,7,7,7,7,7,7,7,7,7,5,7,7,7,7,7,7,
7,7,7,7,6,6,4,4,5,4,7,7,7,5,5,7,7,5,5,7,7,7,7,4,5,5,7,7,7,7,
7,7,7,7,7,7,6,4,4,4,5,7,7,4,4,5,5,4,4,7,7,7,7,4,4,4,7,7,7,7,
7,7,7,7,7,7,7,6,4,4,6,7,7,4,3,4,4,4,4,7,7,7,7,3,4,4,7,7,7,7,
7,7,7,7,7,7,7,7,4,3,7,5,5,4,4,4,4,4,4,5,5,7,7,4,4,4,7,7,7,7,
5,5,7,7,5,7,7,7,4,4,5,4,4,1,1,1,1,4,2,4,4,5,5,2,4,4,5,7,7,7,
4,4,5,5,4,7,7,7,4,4,4,4,1,1,1,1,1,4,4,4,4,4,4,4,4,4,4,7,7,7,
4,4,4,4,6,7,7,7,4,4,4,1,1,1,1,1,1,4,4,4,6,4,4,4,4,4,4,7,7,7,
4,4,4,4,7,7,7,7,4,2,4,1,1,1,1,1,1,4,4,6,7,4,4,3,4,4,4,5,5,7,
4,4,4,6,7,7,7,7,4,4,1,1,1,1,1,1,4,4,4,7,7,4,4,4,4,4,4,4,4,7,
4,4,4,7,7,5,5,5,4,4,1,1,1,1,4,4,4,4,6,5,5,4,4,4,4,4,4,4,4,7,
4,4,4,5,5,4,4,4,3,4,1,1,1,4,4,4,4,4,5,4,4,4,4,4,4,4,4,4,4,7,
4,4,4,4,4,4,4,4,3,4,1,1,4,4,4,4,4,3,4,4,4,4,4,4,4,4,2,4,4,7,
4,2,4,4,3,4,4,4,4,4,1,1,4,4,4,4,4,4,4,4,4,4,3,4,4,4,4,4,4,5,
6,4,4,4,4,4,4,4,4,1,1,4,4,4,4,4,2,4,4,4,4,4,4,4,4,4,4,4,4,4,
7,6,4,4,4,4,4,4,4,1,1,4,4,2,4,4,4,4,4,4,4,4,4,4,4,4,4,4,4,4,
7,7,6,6,6,4,4,4,1,1,4,4,4,4,4,4,4,4,4,4,4,6,6,6,6,4,4,4,4,4,
7,7,7,7,7,6,4,1,1,4,4,4,6,6,6,6,6,6,6,6,6,5,5,7,7,6,6,6,6,6
</data>
 </layer>
</map>
